X:29
T:Golden Eagle
Z: id:dc-hornpipe-27
M:C|
L:1/8
K:G Major
BA|GB,DG BDGB|dGBd gbag|fedB cAFA|G2AG FDBA|!
GB,DG BDGB|dGBd gbag|fedB cAFA|G2FA G2:|!
b^a|bB^df bagf|e^def gfg^g|aA^ce agfe|d2^ce d2ab|!
c'afd ^cdef|gfga bgag|fedB cAFA|G2FA G2:|!